icon-themes/sifr_svg/cmd/lc_starshapes.concave-star6.svg

<svg viewBox="0 0 24 24" xmlns="http://www.w3.org/2000/svg"><g fill="#555753"><path d="m8.5033641 5-4.5284011 6.627054 5.025037 7.372946 3-1.474138 4 2.474138 1.42458-5.342175 3.57542-2.657825-3.516821-3-1.483179-4-4 1z" opacity=".35"/><path d="m8.3125 2-1.8515625.6816406s.15109.9891354.1972656 2.1855469c.046176 1.1964114-.0936765 2.6196544-.3554687 3.1367187-.2278166.44996-1.2698749 1.2382543-2.2832032 1.7441407-1.0133283.5058861-1.9257812.8066391-1.9257812.8066411l-.09375.03125v1.833984c.1398306.083194.9221004.551895 1.875 1.246094 1.0412852.75859 2.1659209 1.812971 2.4277344 2.330078.2617943.51707.4016445 1.940308.3554687 3.136718-.046176 1.196411-.1972656 2.185547-.1972656 2.185547l1.8515625.681641s.602133-.940296 1.4257812-1.867188c.4118238-.463446.8786118-.916044 1.3046878-1.222656.426076-.306613.797612-.43164.957031-.43164s.530956.125027.957031.43164c.426076.306612.892864.759209 1.304688 1.222656.823648.926893 1.425781 1.867188 1.425781 1.867188l1.851562-.681641s-.151089-.989135-.197265-2.185547c-.04617-1.196411.093683-2.619653.355469-3.136718.261813-.517107 1.38645-1.571488 2.427734-2.330078.95303-.694294 1.735285-1.16307 1.875-1.246094v-1.833984l-.09375-.03125s-.912453-.300755-1.925781-.8066411c-1.013328-.5058864-2.055387-1.294181-2.283203-1.7441407-.261794-.5170691-.401645-1.9403081-.355469-3.1367187.046176-1.1964107.197265-2.1855469.197265-2.1855469l-1.851562-.6816406s-.602132.9402952-1.425781 1.8671875c-.411824.4634461-.878612.9160437-1.304688 1.2226563-.426076.3066127-.797611.4316404-.957031.4316406-.159419.0000002-.530956-.1250284-.957031-.4316406-.426076-.3066121-.892864-.75921-1.3046878-1.2226563-.8236481-.9268928-1.4257812-1.8671875-1.4257812-1.8671875zm.3535156 3.5976562c.3725802.3858815.7420771.7829809 1.1875 1.1035157.6126924.4409056 1.3071974.8144542 2.1464844.8144531.839286-.0000011 1.533791-.3735475 2.146484-.8144531.445422-.3205349.81492-.7176343 1.1875-1.1035157-.01101 1.1170123.047522 2.2913272.556641 3.296875.665488 1.3144028 2.019495 2.0536068 3.179687 2.6328128.215462.107564.207099.081389.408204.171875-.260182.17527-.261705.151262-.552735.363281-1.132234.824847-2.403665 1.795713-3.035156 3.042969-.509114 1.005547-.567651 2.179862-.556641 3.296875-.37258-.385882-.742078-.782981-1.1875-1.103516-.612693-.440905-1.307197-.814454-2.146484-.814453s-1.533792.373548-2.1464844.814453c-.4454227.320535-.8149199.717635-1.1875 1.103516.0110103-1.117013-.0475279-2.291327-.5566406-3.296875-.6314911-1.247256-1.9029213-2.218122-3.0351562-3.042969-.2910296-.212019-.2925524-.188011-.5527344-.363281.2011053-.090481.1927432-.064311.4082031-.171875 1.1601919-.579206 2.5141995-1.31841 3.1796875-2.6328128.5091139-1.0055467.5676517-2.1798626.5566406-3.296875z"/></g></svg>

<svg xmlns="http://www.w3.org/2000/svg" viewBox="0 0 24 24">
  <path
     style="fill:#555753;opacity:0.35"
     d="M 8.5033641,5 3.974963,11.627054 9,19 12,17.525862 16,20 17.42458,14.657825 21,12 17.483179,9 16,5 12,6 Z"
     />
  <path
     style="fill:#555753"
     d="M 8.3125 2 L 6.4609375 2.6816406 C 6.4609375 2.6816406 6.6120275 3.670776 6.6582031 4.8671875 C 6.7043791 6.0635989 6.5645266 7.4868419 6.3027344 8.0039062 C 6.0749178 8.4538662 5.0328595 9.2421605 4.0195312 9.7480469 C 3.0062029 10.253933 2.09375 10.554686 2.09375 10.554688 L 2 10.585938 L 2 12.419922 C 2.1398306 12.503116 2.9221004 12.971817 3.875 13.666016 C 4.9162852 14.424606 6.0409209 15.478987 6.3027344 15.996094 C 6.5645287 16.513164 6.7043789 17.936402 6.6582031 19.132812 C 6.6120271 20.329223 6.4609375 21.318359 6.4609375 21.318359 L 8.3125 22 C 8.3125 22 8.914633 21.059704 9.7382812 20.132812 C 10.150105 19.669366 10.616893 19.216768 11.042969 18.910156 C 11.469045 18.603543 11.840581 18.478516 12 18.478516 C 12.159419 18.478516 12.530956 18.603543 12.957031 18.910156 C 13.383107 19.216768 13.849895 19.669365 14.261719 20.132812 C 15.085367 21.059705 15.6875 22 15.6875 22 L 17.539062 21.318359 C 17.539062 21.318359 17.387973 20.329224 17.341797 19.132812 C 17.295627 17.936401 17.43548 16.513159 17.697266 15.996094 C 17.959079 15.478987 19.083716 14.424606 20.125 13.666016 C 21.07803 12.971722 21.860285 12.502946 22 12.419922 L 22 10.585938 L 21.90625 10.554688 C 21.90625 10.554688 20.993797 10.253933 19.980469 9.7480469 C 18.967141 9.2421605 17.925082 8.4538659 17.697266 8.0039062 C 17.435472 7.4868371 17.295621 6.0635981 17.341797 4.8671875 C 17.387973 3.6707768 17.539062 2.6816406 17.539062 2.6816406 L 15.6875 2 C 15.6875 2 15.085368 2.9402952 14.261719 3.8671875 C 13.849895 4.3306336 13.383107 4.7832312 12.957031 5.0898438 C 12.530955 5.3964565 12.15942 5.5214842 12 5.5214844 C 11.840581 5.5214846 11.469044 5.396456 11.042969 5.0898438 C 10.616893 4.7832317 10.150105 4.3306338 9.7382812 3.8671875 C 8.9146331 2.9402947 8.3125 2 8.3125 2 z M 8.6660156 5.5976562 C 9.0385958 5.9835377 9.4080927 6.3806371 9.8535156 6.7011719 C 10.466208 7.1420775 11.160713 7.5156261 12 7.515625 C 12.839286 7.5156239 13.533791 7.1420775 14.146484 6.7011719 C 14.591906 6.380637 14.961404 5.9835376 15.333984 5.5976562 C 15.322974 6.7146685 15.381506 7.8889834 15.890625 8.8945312 C 16.556113 10.208934 17.91012 10.948138 19.070312 11.527344 C 19.285774 11.634908 19.277411 11.608733 19.478516 11.699219 C 19.218334 11.874489 19.216811 11.850481 18.925781 12.0625 C 17.793547 12.887347 16.522116 13.858213 15.890625 15.105469 C 15.381511 16.111016 15.322974 17.285331 15.333984 18.402344 C 14.961404 18.016462 14.591906 17.619363 14.146484 17.298828 C 13.533791 16.857923 12.839287 16.484374 12 16.484375 C 11.160713 16.484376 10.466208 16.857923 9.8535156 17.298828 C 9.4080929 17.619363 9.0385957 18.016463 8.6660156 18.402344 C 8.6770259 17.285331 8.6184877 16.111017 8.109375 15.105469 C 7.4778839 13.858213 6.2064537 12.887347 5.0742188 12.0625 C 4.7831892 11.850481 4.7816664 11.874489 4.5214844 11.699219 C 4.7225897 11.608738 4.7142276 11.634908 4.9296875 11.527344 C 6.0898794 10.948138 7.443887 10.208934 8.109375 8.8945312 C 8.6184889 7.8889845 8.6770267 6.7146686 8.6660156 5.5976562 z "
     />
</svg>
